!!!COM: Palestrina, Giovanni Perluigi da
!!!OPR: Missa Ave regina coelorum
!!!OTL: Gloria
**kern	**kern	**kern	**kern
*Ibass	*Itenor	*Icalto	*Icant
!Bassus	!Tenor	!Altus	!Cantus
*clefF4	*clefGv2	*clefG2	*clefG2
*k[]	*k[]	*k[]	*k[]
*C:ion	*C:ion	*C:ion	*C:ion
*M4/2	*M4/2	*M4/2	*M4/2
=1	=1	=1	=1
1r	0r	1.g	0r
[1c	.	.	.
.	.	2f	.
=2	=2	=2	=2
2c]	0r	0e	1.cc
2B	.	.	.
2A	.	.	.
2G	.	.	2b
=3	=3	=3	=3
1F	1r	1f	1a
1G	[1g	1d	1b
=4	=4	=4	=4
1.E	2g]	2.e	0g
.	2f	.	.
.	.	4d	.
.	1e	4c	.
.	.	4B	.
2E	.	2A	.
=5	=5	=5	=5
0D	1f	2.d	1.a
.	.	4e	.
.	1d	1f	.
.	.	.	2b
=6	=6	=6	=6
0r	2e	2g	2cc
.	1f	1a	2.dd
.	.	.	4cc
.	2e	4g	[2cc
.	.	4f	.
=7	=7	=7	=7
1G	1d	2.g	2cc]
.	.	.	2b
.	.	4f	.
2A	1c	1e	1cc
[2c	.	.	.
=8	=8	=8	=8
2c]	1d	2r	0r
2B	.	2g	.
2.A	1e	2a	.
.	.	[2cc	.
4G	.	.	.
=9	=9	=9	=9
2F	2.d	2cc]	0r
2G	.	2b	.
.	4e	.	.
4D	[1f	[1a	.
4E	.	.	.
4F	.	.	.
4G	.	.	.
=10	=10	=10	=10
4A	2f]	2a]	1cc
4B	.	.	.
1c	2e	2g	.
.	1d	2r	1dd
2B	.	[2g	.
=11	=11	=11	=11
1c	1c	2g]	1ee
.	.	2a	.
1r	1r	2b	2dd
.	.	2cc	2ee
=12	=12	=12	=12
1r	0r	4a	1.ff
.	.	4g	.
.	.	4f	.
.	.	4g	.
1F	.	4a	.
.	.	4b	.
.	.	[2cc	2ee
=13	=13	=13	=13
2G	1r	4cc]	1dd
.	.	8b	.
.	.	8a	.
2G	.	2b	.
1A	1c	2.e	2cc
.	.	.	2a
.	.	4f#	.
=14	=14	=14	=14
1.G	2d	1g	2b
.	2d	.	1dd
.	1e	1r	.
2A	.	.	2cc#
=15	=15	=15	=15
2.B-	1.d	1f	1dd
4A	.	.	.
1G	.	2g	1r
.	2e	2g	.
=16	=16	=16	=16
1F	2.f	2.a	2r
.	.	.	2cc
.	4e	4g	.
1r	1d	4f	2dd
.	.	4g	.
.	.	4a	2dd
.	.	4b	.
=17	=17	=17	=17
0r	4c	2cc	1ee
.	4d	.	.
.	4e	2g	.
.	4f	.	.
.	2g	2b	2dd
.	2c	2cc	2ee
=18	=18	=18	=18
0r	2d	2a	2ff
.	2e	2.cc	2ee
.	2f	.	1dd
.	.	8b	.
.	.	8a	.
.	2g	2b	.
=19	=19	=19	=19
1.c	[0e	2cc	1cc
.	.	1g	.
.	.	.	2r
2c	.	2g	[2cc
=20	=20	=20	=20
2A	1e]	2a	2cc]
2A	.	2a	2cc
1G	1r	1b	2dd
.	.	.	2dd
=21	=21	=21	=21
1C	2r	1cc	1ee
.	1c	.	.
1F	.	1a	2r
.	2c	.	2a
=22	=22	=22	=22
1D	2d	1f	2a
.	2d	.	2b
4C	1e	[1g	[1cc
4D	.	.	.
4E	.	.	.
4F	.	.	.
=23	=23	=23	=23
0G	1d	0g]	2cc]
.	.	.	4b
.	.	.	4a
.	2d	.	2.b
.	2e	.	.
.	.	.	4cc
=24	=24	=24	=24
1F	1f	1a	2dd
.	.	.	1cc
1G	1d	[1g	.
.	.	.	2b
=25	=25	=25	=25
1C	1c	1g]	1cc
2r	2r	2r	2r
[2c	[2e	[2g	[2cc
=26	=26	=26	=26
2c]	2e]	2g]	2cc]
2c	2e	2g	2cc
1A	1e	1a	1cc
=27	=27	=27	=27
1G	1g	1b	1dd
2G	2g	2b	2dd
2G	2g	2b	2ee
=28	=28	=28	=28
4F	1a	1cc	1ff
4G	.	.	.
4A	.	.	.
4B	.	.	.
1c	2g	1cc	1ee
.	[2g	.	.
=29	=29	=29	=29
1d	2g]	2b	2r
.	2f#	2a	1dd
1r	2g	2b	.
.	2e	2g	2cc
=30	=30	=30	=30
0r	2d	4a	2dd
.	.	4g	.
.	2d	4a	2ff
.	.	4b	.
.	4c	1cc	1ee
.	4d	.	.
.	4e	.	.
.	4f	.	.
=31	=31	=31	=31
0r	2g	2b	2dd
.	2a	1a	2cc
.	1e	.	1b
.	.	2g#	.
=32	=32	=32	=32
1d	1f	1a	0a
2c#	2e	2r	.
2d	2f	[2a	.
=33	=33	=33	=33
1B-	1d	2a]	0r
.	.	2g	.
1A	2.e	2a	.
.	.	[2cc	.
.	4f#	.	.
=34	=34	=34	=34
1G	1g	2cc]	0r
.	.	2b	.
2F	2c	2a	.
2C	2e	2g	.
=35	=35	=35	=35
1D	1a	1f	2r
.	.	.	1dd
1A	1a	2e	.
.	.	[2a	2cc#
=36	=36	=36	=36
2B-	2r	2a]	1dd
2B-	1d	2g	.
1A	.	1a	2ff
.	2c#	.	[2ee
=37	=37	=37	=37
1D	2d	1.a	2ee]
.	2f	.	1dd
1r	1e	.	.
.	.	2g	2cc
=38	=38	=38	=38
1r	2d	2f	4b-
.	.	.	4a
.	2c	2e	1a
2r	1B-	1d	.
[2d	.	.	2g
=39	=39	=39	=39
2d]	1A	2r	1a
2c#	.	2.a	.
2d	2r	.	1r
.	.	4a	.
[2B-	[2d	2g	.
=40	=40	=40	=40
2B-]	2d]	2f	0r
2A	2c	2f	.
2G	2B-	2e	.
2F	2A	2d	.
=41	=41	=41	=41
2E	2G	2d	1r
2E	1g	2c#	.
1D	.	2d	2r
.	2f#	2a	[2dd
=42	=42	=42	=42
0r	2g	2b	2dd]
.	2e	2g	2cc#
.	1d	2a	2dd
.	.	2a	[2ff
=43	=43	=43	=43
0r	2A	1cc	2ff]
.	2c	.	2ee
.	2G	2b	2dd
.	2A	[2a	2cc
=44	=44	=44	=44
1r	1e	2a]	2b
.	.	2g#	2b
[1F	2r	2a	1a
.	2A	[2cc	.
=45	=45	=45	=45
1F]	4A	4cc]	1cc
.	4B	4b	.
.	4c	2a	.
.	4d	.	.
1E	2e	1g	1cc
.	[2c	.	.
=46	=46	=46	=46
0D	2c]	1f	0dd
.	4B	.	.
.	4A	.	.
.	1B	1d	.
=47	=47	=47	=47
0C	1c	[0g	1.ee
.	2r	.	.
.	2c	.	4dd
.	.	.	4cc
=48	=48	=48	=48
1G	2d	1g]	1b
.	2e	.	.
2A	1f	1r	1r
2B	.	.	.
=49	=49	=49	=49
1c	2e	0r	0r
.	1g	.	.
2B	.	.	.
[2d	2f	.	.
=50	=50	=50	=50
2d]	1e	0r	1r
2c	.	.	.
2B	2d	.	1g
[2c	[2e	.	.
=51	=51	=51	=51
4c]	4e]	1r	2a
4B	4f#	.	.
2G	1g	.	2b
1A	.	1c	1cc
.	2f#	.	.
=52	=52	=52	=52
1G	2g	2d	1b
.	2G	2e	.
1D	2A	1f	1dd
.	2B	.	.
=53	=53	=53	=53
0r	2c	2e	2cc
.	2G	1g	2b
.	1d	.	2.a
.	.	2f	.
.	.	.	4b
=54	=54	=54	=54
0r	2c	2e	2cc
.	2B-	2.f	2.dd
.	1A	.	.
.	.	4e	4cc
.	.	2c	[2cc
=55	=55	=55	=55
2r	1G	0d	2cc]
1G	.	.	2b
.	2r	.	1a
2F	[2d	.	.
=56	=56	=56	=56
1E	2d]	2r	1g
.	2c	1g	.
4D	2B	.	1r
4E	.	.	.
4F	4A	2f	.
4G	4B	.	.
=57	=57	=57	=57
2A	4c	2e	0r
.	4A	.	.
2F	2.d	2.f	.
1A	.	.	.
.	4c	4e	.
.	[2c	2c	.
=58	=58	=58	=58
1G	2c]	2d	2r
.	4B	2.g	1dd
.	4A	.	.
1r	2B	.	.
.	.	4f	.
.	2c	2e	2cc
=59	=59	=59	=59
0r	2G	2d	2b
.	4A	4c	2.cc
.	4B	4d	.
.	4c	4e	.
.	4d	4f	4b
.	2e	[2g	2g
=60	=60	=60	=60
2r	2.d	2g]	1a
1d	.	2f#	.
.	4c	.	.
.	2B	1g	[1g
2c	2e	.	.
=61	=61	=61	=61
2B	2d	1r	1g]
2.c	2.e	.	.
.	.	1g	2r
4B	4d	.	.
2G	2B	.	[2dd
=62	=62	=62	=62
1A	1c	2f	2dd]
.	.	4e	2cc
.	.	4f	.
2.G	2r	4g	4b
.	.	4a	4a
.	[2g	[2b	4g
4F	.	.	4a
=63	=63	=63	=63
2E	2g]	4b]	4b
.	.	4g	4cc
2D	2f	4a	2dd
.	.	4b	.
2C	2e	2cc	2ee
2D	[2f	[2a	[2dd
=64	=64	=64	=64
1A	4f]	4a]	4dd]
.	4e	4g	4cc
.	2c	4e	1cc
.	.	4f	.
1G	1d	1g	.
.	.	.	2b
=65	=65	=65	=65
0C	0c	0e	0cc
=66	=66	=66	=66
0r	0r	1g	1r
.	.	2.a	1cc
.	.	4b	.
=67	=67	=67	=67
0r	0r	1cc	2.ee
.	.	.	4ff
.	.	2b	1gg
.	.	2g	.
=68	=68	=68	=68
0r	0r	4a	2ff
.	.	4b	.
.	.	4cc	2ee
.	.	4a	.
.	.	2b	2dd
.	.	2a	2cc
=69	=69	=69	=69
0r	0r	4g	2dd
.	.	4f	.
.	.	4e	2.ee
.	.	4d	.
.	.	4c	.
.	.	4d	4dd
.	.	4e	[2cc
.	.	4c	.
=70	=70	=70	=70
1G	1r	2d	2cc]
.	.	2.e	2b
2.A	1c	.	[1cc
.	.	4d	.
.	.	4c	.
4B	.	4B	.
=71	=71	=71	=71
1c	2.e	1A	1cc]
.	4f	.	.
2B	1g	1G	1r
2G	.	.	.
=72	=72	=72	=72
4A	2f	0r	0r
4B	.	.	.
4c	2e	.	.
4A	.	.	.
2B	2d	.	.
2A	2c	.	.
=73	=73	=73	=73
4G	2d	1g	0r
4F	.	.	.
4E	2.e	.	.
4D	.	.	.
4C	.	1e	.
4D	4d	.	.
4E	[2c	.	.
4C	.	.	.
=74	=74	=74	=74
1D	2c]	1f	1r
.	2B	.	.
1C	1c	4e	1cc
.	.	4f	.
.	.	4g	.
.	.	4e	.
=75	=75	=75	=75
0r	2r	4f	1a
.	.	4g	.
.	2f	1a	.
.	2d	.	1b
.	2e	[2g	.
=76	=76	=76	=76
1r	2c	2g]	1a
.	2d	2f#	.
1c	1e	2g	1g
.	.	[2cc	.
=77	=77	=77	=77
1A	2r	4cc]	1a
.	.	4b	.
.	2f	1a	.
1B	1d	.	1dd
.	.	2g	.
=78	=78	=78	=78
0A	1e	2.a	2cc
.	.	.	2.ee
.	.	8g	.
.	.	8f	.
.	1c	2e	.
.	.	.	4dd
.	.	2f	2cc
=79	=79	=79	=79
0G	2e	0g	2b
.	4d	.	1cc
.	4c	.	.
.	1d	.	.
.	.	.	2b
=80	=80	=80	=80
2C	2c	1e	0cc
2c	2e	.	.
2.A	1a	2r	.
.	.	2c	.
4B	.	.	.
=81	=81	=81	=81
1c	1g	2.e	2r
.	.	.	2cc
.	.	4f	.
1C	1r	2g	2.ee
.	.	2a	.
.	.	.	4ff
=82	=82	=82	=82
0r	0r	2b	1gg
.	.	2cc	.
.	.	4a	2ff
.	.	4b	.
.	.	4cc	2ee
.	.	4a	.
=83	=83	=83	=83
0r	1r	2b	2dd
.	.	2a	2cc
.	1c	4g	[1ee
.	.	4f	.
.	.	4e	.
.	.	4d	.
=84	=84	=84	=84
0r	2.e	2c	1ee]
.	.	1cc	.
.	4f	.	.
.	1g	.	[1dd
.	.	2b	.
=85	=85	=85	=85
0r	2f	2a	2dd]
.	2e	2g	2cc
.	2d	4f	2b
.	.	4g	.
.	2c	[2a	2cc
=86	=86	=86	=86
0r	1e	4a]	2b
.	.	4g	.
.	.	1g	4a
.	.	.	4g
.	1d	.	1a
.	.	2f#	.
=87	=87	=87	=87
1.G	2r	2g	2b
.	1d	1g	1b
2G	2d	2g	2b
=88	=88	=88	=88
0G	2.d	1g	2.b
.	4c	.	4cc
.	2B	2r	2dd
.	4A	[2g	4cc
.	4G	.	4b
=89	=89	=89	=89
2r	1A	2g]	1cc
1c	.	2f	.
.	2G	2e	1r
2B	[2g	2d	.
=90	=90	=90	=90
1.A	2g]	1.c	0r
.	2f	.	.
.	2e	.	.
2G	2e	2B	.
=91	=91	=91	=91
2F	2d	2A	0r
2E	2c	2G	.
1F	1d	1A	.
=92	=92	=92	=92
1E	1e	1B	2r
.	.	.	1gg
2.D	2.a	2r	.
.	.	[2d	2ff
4D	4a	.	.
=93	=93	=93	=93
2A	2a	2d]	2ee
2A	2a	2c	2ee
2D	[1a	2f	2dd
2A	.	2e	2cc
=94	=94	=94	=94
0d	2a]	2.f	0dd
.	2d	.	.
.	.	4g	.
.	1f	2a	.
.	.	2b	.
=95	=95	=95	=95
0c	1g	1cc	2ee
.	.	.	2gg
.	2r	4c	1ee
.	.	4d	.
.	2g	4e	.
.	.	4f	.
=96	=96	=96	=96
1c	1e	1g	2.cc
.	.	.	4dd
1A	2c	2r	1ee
.	2e	2cc	.
=97	=97	=97	=97
2F	2.f	1a	0r
2A	.	.	.
.	4f	.	.
2.c	2e	1g	.
.	[2g	.	.
4c	.	.	.
=98	=98	=98	=98
2B	4g]	0r	0r
.	4f	.	.
2.c	4e	.	.
.	4d	.	.
.	4c	.	.
4B	4d	.	.
4A	2e	.	.
4G	.	.	.
=99	=99	=99	=99
4F	2d	0r	0r
4G	.	.	.
1A	2c	.	.
.	1B	.	.
2G#	.	.	.
=100	=100	=100	=100
1A	2A	1.cc	1ee
.	1a	.	.
1r	.	.	1ee
.	2g	2b	.
=101	=101	=101	=101
0r	2f	2a	2dd
.	2e	2g	2ee
.	2.d	4a	[1ff
.	.	4g	.
.	.	4f	.
.	4e	4g	.
=102	=102	=102	=102
0r	2f	4a	2ff]
.	.	4b	.
.	2c	1cc	2ee
.	1g	.	1dd
.	.	2b	.
=103	=103	=103	=103
2.F	2r	2cc	1cc
.	1c	1f	.
4G	.	.	.
2A	.	.	1r
2B	2d	2g	.
=104	=104	=104	=104
2c	2e	2a	0r
2d	2f	2b-	.
2c	2e	2a	.
2A	2e	2a	.
=105	=105	=105	=105
1B-	1d	1g	1r
2.A	1e	[1a	[1cc
4G	.	.	.
=106	=106	=106	=106
1F	2r	2a]	2cc]
.	2f	2a	2dd
1r	2g	2b	2ee
.	[2a	[2cc	2ff
=107	=107	=107	=107
0r	4a]	4cc]	2ee
.	4g	4b	.
.	2e	2g	2ee
.	2f	2a	1dd
.	2g	2b	.
=108	=108	=108	=108
2r	1c	1cc	1ee
1c	.	.	.
.	1g	1r	1r
2B	.	.	.
=109	=109	=109	=109
2A	2f	0r	0r
1G	2e	.	.
.	[1d	.	.
4F	.	.	.
4E	.	.	.
=110	=110	=110	=110
4F	2d]	2r	0r
4G	.	.	.
1A	4c	2cc	.
.	4B	.	.
.	4c	2cc	.
.	4d	.	.
2G	[2e	2b	.
=111	=111	=111	=111
2F	2e]	2a	1r
2F	2d	2a	.
1E	1e	1g	2r
.	.	.	2gg
=112	=112	=112	=112
0r	1a	1cc	2ff
.	.	.	1ee
.	2g	2b	.
.	2f	2a	2dd
=113	=113	=113	=113
0r	2e	2g	2.cc
.	1f	1a	.
.	.	.	4b
.	.	.	4cc
.	.	.	4dd
.	2c	2g	[2ee
=114	=114	=114	=114
1r	1d	1f	2ee]
.	.	.	2dd
1c	1r	1e	1ee
=115	=115	=115	=115
2.A	0e	1a	0cc
4B	.	.	.
1c	.	[1g	.
=116	=116	=116	=116
2.G	1d	0g]	1.b
4F	.	.	.
1E	1e	.	.
.	.	.	2cc
=117	=117	=117	=117
2.D	1.f	0a	4dd
.	.	.	4ee
.	.	.	4ff
4E	.	.	4ee
1F	.	.	4dd
.	.	.	4cc
.	2e	.	[2cc
=118	=118	=118	=118
0G	0d	0g	2cc]
.	.	.	4b
.	.	.	4a
.	.	.	1b
=119	=119	=119	=119
0C	0c	2r	1cc
.	.	2g	.
.	.	2e	2r
.	.	2c	2cc
=120	=120	=120	=120
0r	2r	2f	2a
.	2c	2g	2g
.	2A	2a	2cc
.	2G	2b	2dd
=121	=121	=121	=121
0r	2c	4cc	2ee
.	.	4b	.
.	2d	1a	4dd
.	.	.	4cc
.	1e	.	1b
.	.	2g#	.
=122	=122	=122	=122
2r	1.f	1a	2.a
2F	.	.	.
.	.	.	4g
2D	.	2r	4a
.	.	.	4b
2C	2e	2g	[2cc
=123	=123	=123	=123
2F	1d	2a	2cc]
2G	.	4g	2b
.	.	4f	.
4A	1c	2e	2cc
4G	.	.	.
4F	.	[2f	2cc
4G	.	.	.
=124	=124	=124	=124
4A	2r	2f]	2a
4B	.	.	.
1c	2c	4e	2g
.	.	4d	.
.	2A	2e	2cc
2B	2G	[2g	2dd
=125	=125	=125	=125
1A	1c	2g]	2ee
.	.	2f#	1cc
1G	2d	1g	.
.	2e	.	2b
=126	=126	=126	=126
0r	1.f	2r	2.a
.	.	2f	.
.	.	.	4g
.	.	2d	4a
.	.	.	4b
.	2e	2c	2cc
=127	=127	=127	=127
0r	2d	2f	2dd
.	2c	2g	1ee
.	1f	1a	.
.	.	.	2dd
=128	=128	=128	=128
1c	2.e	1.cc	1ee
.	4d	.	.
2A	4e	.	2r
.	4f	.	.
2G	[2g	2b	2dd
=129	=129	=129	=129
2c	2g]	1a	2ee
2d	2f#	.	4dd
.	.	.	4cc
2e	2g	[1g	2b
[2c	2e	.	[2ee
=130	=130	=130	=130
2c]	2c	1g]	2ee]
2B	2d	.	2dd
2.A	2e	1a	[1cc
.	[2f	.	.
4B	.	.	.
=131	=131	=131	=131
1c	4f]	1g	1cc]
.	8e	.	.
.	8d	.	.
.	2e	.	.
[1F	[1f	2r	1a
.	.	2f	.
=132	=132	=132	=132
1F]	1f]	2d	2r
.	.	2c	2cc
1r	1r	2f	2a
.	.	2g	2g
=133	=133	=133	=133
0r	1r	2a	2cc
.	.	1g	2dd
.	1c	.	2ee
.	.	2e	[2cc
=134	=134	=134	=134
0r	2A	2f	2cc]
.	2G	1g	2b
.	2c	.	1a
.	2d	2f#	.
=135	=135	=135	=135
1r	1e	1g	2g
.	.	.	2.cc
1F	[1f	1a	.
.	.	.	4b
.	.	.	4a
.	.	.	4g
=136	=136	=136	=136
2D	2f]	2f	4a
.	.	.	4b
2C	2e	2g	1cc
2F	1d	2a	.
2G	.	4g	2b
.	.	4f	.
=137	=137	=137	=137
2A	2c	2e	[0cc
1F	1f	1a	.
2E	2g	2g	.
=138	=138	=138	=138
0F	2a	2.f	1cc_
.	2a	.	.
.	.	4g	.
.	1f	1a	1cc_
=139	=139	=139	=139
0C	0e	0g	0cc]
==	==	==	==
*-	*-	*-	*-
!!!CDT: 1525/^1526/-1594/2/2
!!!OCY: Italia
!!!AGN: Mass (Paraphrase)
!!!AST: renaissance, vocal
!!!ASW: Antiphon
!!!PWK: Masses, Book 9
!!!RNB: Cadence finals: G
!!!YOR: Le Opere Complete, v. 25, p. 1
!!!YOO: Rome, Italy: Fratelli Scalera
!!!END: 1992//
!!!EED: John Miller
!!!YEC: Copyright 2000, John Miller
!!!YEN: United States of America
!!!YEM: Rights to all derivative electronic formats reserved.
!!!YEM: Refer to licensing agreement for further details.
!!!YEM: This file must be accompanied by the licensing agreement.
!!!YEM: A copy of the licensing agreement may be found at http://www.music-cog.ohio-state.edu/HumdrumDatabases/Palestrina/license.txt
!!!EMD: converted to Humdrum by Bret Aarden
